X: 10693
M: 2/4
L: 1/16
K: G
d/e>f !segno!|\
g3d B>BB>B | dcA3 z/c/B>A | G2G,2 B,>DG>B | A>d^c>d D>de>f |\
g3d B>BB>B | dcA3 z/A/c>e | d3c B>cA>B | G2g2 G2 H|]
e>cG>E C>ef>g | d>BG>D G,>Bc>d | c>Aa>c B>Gg>B | A2d2 D2F>"^D.C."B |]


